src/pos-icons/peanut-outline.svg

<svg height="24" viewBox="0 0 24 24" width="24" xmlns="http://www.w3.org/2000/svg"><path d="m12 23c-.47 0-.93-.05-1.39-.15-3.51-.75-5.74-4.21-4.99-7.72.25-1.18.83-2.26 1.66-3.13.34-.36.34-.92 0-1.28-2.08-2.58-1.68-6.36.9-8.44s6.36-1.673 8.44.91c1.77 2.19 1.77 5.31 0 7.53-.29.41-.25.98.1 1.34 2.45 2.62 2.32 6.74-.31 9.19-1.19 1.12-2.77 1.75-4.41 1.75m0-20c-.91 0-1.8.31-2.5.89-.95.76-1.5 1.9-1.5 3.11 0 .91.31 1.79.88 2.5.96 1.14.89 2.83-.15 3.91-1.7 1.81-1.6 4.66.21 6.36s4.66 1.61 6.36-.21c1.62-1.73 1.62-4.42 0-6.15-1.07-1.09-1.15-2.81-.18-4 1.38-1.72 1.1-4.24-.62-5.62-.5-.38-1.03-.65-1.62-.79-.29 0-.59 0-.88 0m0 3c0 .55.45 1 1 1s1-.45 1-1-.45-1-1-1-1 .45-1 1m2 13c.55 0 1-.45 1-1s-.45-1-1-1-1 .45-1 1 .45 1 1 1m-1-3c.55 0 1-.45 1-1s-.45-1-1-1-1 .45-1 1 .45 1 1 1m-2 2c.55 0 1-.45 1-1s-.45-1-1-1-1 .45-1 1 .45 1 1 1z"/></svg>

<?xml version="1.0" encoding="UTF-8"?><!DOCTYPE svg PUBLIC "-//W3C//DTD SVG 1.1//EN" "http://www.w3.org/Graphics/SVG/1.1/DTD/svg11.dtd"><svg xmlns="http://www.w3.org/2000/svg" xmlns:xlink="http://www.w3.org/1999/xlink" version="1.1" id="mdi-peanut-outline" width="24" height="24" viewBox="0 0 24 24"><path d="M12 23C11.53 23 11.07 22.95 10.61 22.85C7.1 22.1 4.87 18.64 5.62 15.13C5.87 13.95 6.45 12.87 7.28 12C7.62 11.64 7.62 11.08 7.28 10.72C5.2 8.14 5.6 4.36 8.18 2.28S14.54.607 16.62 3.19C18.39 5.38 18.39 8.5 16.62 10.72C16.33 11.13 16.37 11.7 16.72 12.06C19.17 14.68 19.04 18.8 16.41 21.25C15.22 22.37 13.64 23 12 23M12 3C11.09 3 10.2 3.31 9.5 3.89C8.55 4.65 8 5.79 8 7C8 7.91 8.31 8.79 8.88 9.5C9.84 10.64 9.77 12.33 8.73 13.41C7.03 15.22 7.13 18.07 8.94 19.77S13.6 21.38 15.3 19.56C16.92 17.83 16.92 15.14 15.3 13.41C14.23 12.32 14.15 10.6 15.12 9.41C16.5 7.69 16.22 5.17 14.5 3.79C14 3.41 13.47 3.14 12.88 3C12.59 3 12.29 3 12 3M12 6C12 6.55 12.45 7 13 7S14 6.55 14 6 13.55 5 13 5 12 5.45 12 6M14 19C14.55 19 15 18.55 15 18S14.55 17 14 17 13 17.45 13 18 13.45 19 14 19M13 16C13.55 16 14 15.55 14 15S13.55 14 13 14 12 14.45 12 15 12.45 16 13 16M11 18C11.55 18 12 17.55 12 17S11.55 16 11 16 10 16.45 10 17 10.45 18 11 18Z" /></svg>
